img/logo.svg

<svg width="224" height="60" viewBox="0 0 224 60" fill="none" xmlns="http://www.w3.org/2000/svg">
<g clip-path="url(#clip0_19_119)">
<path d="M19 0L0 13.646V48.6501L10.5341 59.1841L10.3021 22.4196L19 15.3082L27.6979 22.4196L27.4659 59.1841L38 48.6501V13.646L19 0Z" fill="#252420"/>
<path d="M25.9939 29.5921L19 33.791L12.0062 29.5921V41.8506L19 46.055L25.9939 41.8506V29.5921Z" fill="#FF7401"/>
</g>
<path d="M59.8281 19.8577L53.6094 40.5921H50.6719L58 17.8421H59.8438L59.8281 19.8577ZM64.8594 40.5921L58.6406 19.8577L58.6094 17.8421H60.4688L67.7969 40.5921H64.8594ZM64.8594 32.1702V34.6389H53.8906V32.1702H64.8594ZM73.3281 16.5921V40.5921H70.5625V16.5921H73.3281ZM81.9062 23.6858L75.8906 31.5764L72.1719 35.8577L71.9844 32.7796L74.5469 29.2483L78.5781 23.6858H81.9062ZM79.375 40.5921L74.625 32.5296L76.0469 29.9514L82.5938 40.5921H79.375ZM93.2656 37.7014V28.5296C93.2656 27.8629 93.1615 27.3264 92.9531 26.9202C92.7552 26.5139 92.4531 26.2171 92.0469 26.0296C91.651 25.8421 91.151 25.7483 90.5469 25.7483C89.9635 25.7483 89.4583 25.8681 89.0312 26.1077C88.6146 26.3473 88.2917 26.665 88.0625 27.0608C87.8438 27.4567 87.7344 27.8942 87.7344 28.3733H84.9688C84.9688 27.7692 85.099 27.1702 85.3594 26.5764C85.6302 25.9827 86.0156 25.4462 86.5156 24.9671C87.0156 24.4775 87.6146 24.0921 88.3125 23.8108C89.0208 23.5192 89.8125 23.3733 90.6875 23.3733C91.7292 23.3733 92.651 23.5452 93.4531 23.8889C94.2552 24.2223 94.8854 24.7692 95.3438 25.5296C95.8021 26.29 96.0312 27.3004 96.0312 28.5608V36.9046C96.0312 37.4671 96.0729 38.066 96.1562 38.7014C96.25 39.3369 96.3802 39.8837 96.5469 40.3421V40.5921H93.6875C93.5521 40.2587 93.4479 39.816 93.375 39.2639C93.3021 38.7014 93.2656 38.1806 93.2656 37.7014ZM93.7031 30.3421L93.7344 32.3733H91.8125C91.1562 32.3733 90.5573 32.4462 90.0156 32.5921C89.4844 32.7379 89.026 32.9514 88.6406 33.2327C88.2552 33.5035 87.9583 33.8421 87.75 34.2483C87.5521 34.6546 87.4531 35.1181 87.4531 35.6389C87.4531 36.316 87.5469 36.8577 87.7344 37.2639C87.9219 37.6598 88.2031 37.9462 88.5781 38.1233C88.9531 38.3004 89.4271 38.3889 90 38.3889C90.6979 38.3889 91.3125 38.2275 91.8438 37.9046C92.375 37.5817 92.7865 37.191 93.0781 36.7327C93.3802 36.2744 93.5208 35.8473 93.5 35.4514L94.1094 36.7483C94.0677 37.1546 93.9323 37.5973 93.7031 38.0764C93.4844 38.5452 93.1771 38.9983 92.7812 39.4358C92.3854 39.8629 91.9167 40.2171 91.375 40.4983C90.8438 40.7692 90.2448 40.9046 89.5781 40.9046C88.599 40.9046 87.7396 40.7171 87 40.3421C86.2708 39.9671 85.7031 39.415 85.2969 38.6858C84.8906 37.9567 84.6875 37.0556 84.6875 35.9827C84.6875 35.1702 84.8281 34.4202 85.1094 33.7327C85.3906 33.0452 85.8073 32.4514 86.3594 31.9514C86.9115 31.441 87.6042 31.0452 88.4375 30.7639C89.2812 30.4827 90.2552 30.3421 91.3594 30.3421H93.7031ZM109.188 37.3108V16.5921H111.938V40.5921H109.422L109.188 37.3108ZM99.7344 32.9514V31.3733C99.7344 29.9775 99.8698 28.7796 100.141 27.7796C100.411 26.7692 100.797 25.941 101.297 25.2952C101.797 24.6389 102.396 24.1546 103.094 23.8421C103.792 23.5296 104.562 23.3733 105.406 23.3733C106.281 23.3733 107.031 23.5504 107.656 23.9046C108.292 24.2587 108.823 24.7744 109.25 25.4514C109.677 26.1181 110.01 26.9306 110.25 27.8889C110.5 28.8369 110.667 29.9098 110.75 31.1077V33.2171C110.656 34.4046 110.484 35.4723 110.234 36.4202C109.995 37.3681 109.661 38.1754 109.234 38.8421C108.807 39.5087 108.276 40.0192 107.641 40.3733C107.005 40.7275 106.25 40.9046 105.375 40.9046C104.542 40.9046 103.781 40.7431 103.094 40.4202C102.406 40.0869 101.807 39.5921 101.297 38.9358C100.797 38.2692 100.411 37.441 100.141 36.4514C99.8698 35.4514 99.7344 34.2848 99.7344 32.9514ZM102.5 31.3733V32.9514C102.5 33.8889 102.568 34.7067 102.703 35.4046C102.839 36.0921 103.052 36.665 103.344 37.1233C103.635 37.5712 104.005 37.9046 104.453 38.1233C104.911 38.3421 105.458 38.4514 106.094 38.4514C106.865 38.4514 107.495 38.2639 107.984 37.8889C108.474 37.5139 108.865 37.0192 109.156 36.4046C109.458 35.7796 109.698 35.1077 109.875 34.3889V29.9514C109.771 29.4202 109.62 28.9098 109.422 28.4202C109.224 27.9202 108.974 27.4775 108.672 27.0921C108.38 26.6962 108.021 26.3837 107.594 26.1546C107.177 25.9254 106.688 25.8108 106.125 25.8108C105.49 25.8108 104.938 25.9254 104.469 26.1546C104.01 26.3837 103.635 26.7275 103.344 27.1858C103.062 27.6442 102.849 28.2223 102.703 28.9202C102.568 29.6181 102.5 30.4358 102.5 31.3733ZM122.25 40.9046C121.24 40.9046 120.328 40.7535 119.516 40.4514C118.703 40.1494 118.01 39.691 117.438 39.0764C116.865 38.4514 116.427 37.665 116.125 36.7171C115.823 35.7692 115.672 34.6494 115.672 33.3577V31.4514C115.672 29.9619 115.844 28.7014 116.188 27.6702C116.542 26.6389 117.016 25.8108 117.609 25.1858C118.203 24.5504 118.875 24.0921 119.625 23.8108C120.375 23.5192 121.146 23.3733 121.938 23.3733C123 23.3733 123.906 23.5452 124.656 23.8889C125.406 24.2327 126.016 24.7431 126.484 25.4202C126.953 26.0973 127.297 26.9306 127.516 27.9202C127.745 28.9098 127.859 30.0504 127.859 31.3421V32.9514H117.297V30.5921H125.094V30.2014C125.052 29.3264 124.932 28.5556 124.734 27.8889C124.547 27.2223 124.234 26.7014 123.797 26.3264C123.359 25.941 122.74 25.7483 121.938 25.7483C121.427 25.7483 120.953 25.8369 120.516 26.0139C120.089 26.1806 119.719 26.4775 119.406 26.9046C119.104 27.3212 118.865 27.8994 118.688 28.6389C118.521 29.3785 118.438 30.316 118.438 31.4514V33.3577C118.438 34.2639 118.521 35.0452 118.688 35.7014C118.865 36.3473 119.12 36.8837 119.453 37.3108C119.797 37.7275 120.214 38.04 120.703 38.2483C121.203 38.4462 121.771 38.5452 122.406 38.5452C123.333 38.5452 124.099 38.3681 124.703 38.0139C125.307 37.6494 125.833 37.1858 126.281 36.6233L127.734 38.3577C127.432 38.7848 127.036 39.1962 126.547 39.5921C126.068 39.9775 125.474 40.2952 124.766 40.5452C124.068 40.7848 123.229 40.9046 122.25 40.9046ZM133.969 27.0452V40.5921H131.219V23.6858H133.812L133.969 27.0452ZM133.406 31.4983L132.125 31.4514C132.115 30.2952 132.229 29.2275 132.469 28.2483C132.708 27.2587 133.068 26.3994 133.547 25.6702C134.036 24.941 134.646 24.3785 135.375 23.9827C136.115 23.5764 136.974 23.3733 137.953 23.3733C138.599 23.3733 139.198 23.4879 139.75 23.7171C140.312 23.9358 140.802 24.2848 141.219 24.7639C141.635 25.2431 141.958 25.8577 142.188 26.6077C142.427 27.3577 142.547 28.2639 142.547 29.3264V40.5921H139.781V29.4671C139.781 28.5817 139.661 27.8733 139.422 27.3421C139.193 26.8108 138.865 26.4254 138.438 26.1858C138.01 25.9358 137.5 25.8108 136.906 25.8108C136.229 25.8108 135.661 25.9619 135.203 26.2639C134.755 26.566 134.396 26.9827 134.125 27.5139C133.865 28.0452 133.677 28.6546 133.562 29.3421C133.458 30.0192 133.406 30.7379 133.406 31.4983ZM142.516 29.9046L140.672 30.4983C140.661 29.5712 140.776 28.6806 141.016 27.8264C141.255 26.9723 141.609 26.2119 142.078 25.5452C142.557 24.8785 143.151 24.3525 143.859 23.9671C144.568 23.5712 145.391 23.3733 146.328 23.3733C147.099 23.3733 147.781 23.4931 148.375 23.7327C148.969 23.9723 149.469 24.3421 149.875 24.8421C150.292 25.3317 150.604 25.9619 150.812 26.7327C151.021 27.5035 151.125 28.4202 151.125 29.4827V40.5921H148.359V29.4514C148.359 28.5035 148.24 27.7692 148 27.2483C147.771 26.7171 147.443 26.3473 147.016 26.1389C146.589 25.9202 146.078 25.8108 145.484 25.8108C145.005 25.8108 144.578 25.9202 144.203 26.1389C143.839 26.3577 143.531 26.6598 143.281 27.0452C143.031 27.4202 142.839 27.8525 142.703 28.3421C142.578 28.8317 142.516 29.3525 142.516 29.9046Z" fill="#252420"/>
<path d="M158.062 27.2952V40.5921H155.297V23.6858H157.906L158.062 27.2952ZM157.391 31.4983L156.266 31.4514C156.255 30.2952 156.385 29.2275 156.656 28.2483C156.938 27.2587 157.333 26.3994 157.844 25.6702C158.365 24.941 158.984 24.3785 159.703 23.9827C160.422 23.5764 161.219 23.3733 162.094 23.3733C162.781 23.3733 163.406 23.4879 163.969 23.7171C164.531 23.9358 165.01 24.29 165.406 24.7796C165.802 25.2692 166.104 25.9046 166.312 26.6858C166.531 27.4567 166.641 28.3994 166.641 29.5139V40.5921H163.875V29.4827C163.875 28.5973 163.776 27.8889 163.578 27.3577C163.391 26.816 163.099 26.4254 162.703 26.1858C162.318 25.9358 161.828 25.8108 161.234 25.8108C160.693 25.8108 160.188 25.9619 159.719 26.2639C159.25 26.566 158.839 26.9827 158.484 27.5139C158.141 28.0452 157.87 28.6546 157.672 29.3421C157.484 30.0192 157.391 30.7379 157.391 31.4983ZM179.078 37.7014V28.5296C179.078 27.8629 178.974 27.3264 178.766 26.9202C178.568 26.5139 178.266 26.2171 177.859 26.0296C177.464 25.8421 176.964 25.7483 176.359 25.7483C175.776 25.7483 175.271 25.8681 174.844 26.1077C174.427 26.3473 174.104 26.665 173.875 27.0608C173.656 27.4567 173.547 27.8942 173.547 28.3733H170.781C170.781 27.7692 170.911 27.1702 171.172 26.5764C171.443 25.9827 171.828 25.4462 172.328 24.9671C172.828 24.4775 173.427 24.0921 174.125 23.8108C174.833 23.5192 175.625 23.3733 176.5 23.3733C177.542 23.3733 178.464 23.5452 179.266 23.8889C180.068 24.2223 180.698 24.7692 181.156 25.5296C181.615 26.29 181.844 27.3004 181.844 28.5608V36.9046C181.844 37.4671 181.885 38.066 181.969 38.7014C182.062 39.3369 182.193 39.8837 182.359 40.3421V40.5921H179.5C179.365 40.2587 179.26 39.816 179.188 39.2639C179.115 38.7014 179.078 38.1806 179.078 37.7014ZM179.516 30.3421L179.547 32.3733H177.625C176.969 32.3733 176.37 32.4462 175.828 32.5921C175.297 32.7379 174.839 32.9514 174.453 33.2327C174.068 33.5035 173.771 33.8421 173.562 34.2483C173.365 34.6546 173.266 35.1181 173.266 35.6389C173.266 36.316 173.359 36.8577 173.547 37.2639C173.734 37.6598 174.016 37.9462 174.391 38.1233C174.766 38.3004 175.24 38.3889 175.812 38.3889C176.51 38.3889 177.125 38.2275 177.656 37.9046C178.188 37.5817 178.599 37.191 178.891 36.7327C179.193 36.2744 179.333 35.8473 179.312 35.4514L179.922 36.7483C179.88 37.1546 179.745 37.5973 179.516 38.0764C179.297 38.5452 178.99 38.9983 178.594 39.4358C178.198 39.8629 177.729 40.2171 177.188 40.4983C176.656 40.7692 176.057 40.9046 175.391 40.9046C174.411 40.9046 173.552 40.7171 172.812 40.3421C172.083 39.9671 171.516 39.415 171.109 38.6858C170.703 37.9567 170.5 37.0556 170.5 35.9827C170.5 35.1702 170.641 34.4202 170.922 33.7327C171.203 33.0452 171.62 32.4514 172.172 31.9514C172.724 31.441 173.417 31.0452 174.25 30.7639C175.094 30.4827 176.068 30.3421 177.172 30.3421H179.516ZM194.344 36.2639C194.344 35.8369 194.24 35.4619 194.031 35.1389C193.823 34.816 193.479 34.5035 193 34.2014C192.531 33.8994 191.896 33.5764 191.094 33.2327C190.312 32.9098 189.609 32.5921 188.984 32.2796C188.37 31.9567 187.849 31.6077 187.422 31.2327C186.995 30.8577 186.667 30.4254 186.438 29.9358C186.219 29.4358 186.109 28.8473 186.109 28.1702C186.109 27.4931 186.234 26.8681 186.484 26.2952C186.745 25.7119 187.109 25.2014 187.578 24.7639C188.047 24.3264 188.609 23.9879 189.266 23.7483C189.922 23.4983 190.656 23.3733 191.469 23.3733C192.625 23.3733 193.609 23.5973 194.422 24.0452C195.234 24.4931 195.854 25.1077 196.281 25.8889C196.719 26.6598 196.938 27.5296 196.938 28.4983H194.188C194.188 28.0296 194.083 27.5869 193.875 27.1702C193.667 26.7535 193.359 26.415 192.953 26.1546C192.547 25.8837 192.052 25.7483 191.469 25.7483C190.854 25.7483 190.354 25.8577 189.969 26.0764C189.583 26.2952 189.302 26.5817 189.125 26.9358C188.958 27.2796 188.875 27.6598 188.875 28.0764C188.875 28.3889 188.917 28.6598 189 28.8889C189.094 29.1077 189.25 29.316 189.469 29.5139C189.688 29.7014 189.984 29.8994 190.359 30.1077C190.745 30.3056 191.234 30.5348 191.828 30.7952C192.974 31.2431 193.938 31.6962 194.719 32.1546C195.5 32.6129 196.094 33.1494 196.5 33.7639C196.906 34.3785 197.109 35.1389 197.109 36.0452C197.109 36.7848 196.974 37.4567 196.703 38.0608C196.443 38.6546 196.068 39.165 195.578 39.5921C195.089 40.0192 194.5 40.3473 193.812 40.5764C193.135 40.7952 192.375 40.9046 191.531 40.9046C190.26 40.9046 189.182 40.6546 188.297 40.1546C187.422 39.6442 186.755 38.9827 186.297 38.1702C185.849 37.3473 185.625 36.4671 185.625 35.5296H188.391C188.422 36.3212 188.599 36.9358 188.922 37.3733C189.255 37.8108 189.656 38.1129 190.125 38.2796C190.594 38.4462 191.062 38.5296 191.531 38.5296C192.146 38.5296 192.661 38.441 193.078 38.2639C193.495 38.0764 193.807 37.8108 194.016 37.4671C194.234 37.1233 194.344 36.7223 194.344 36.2639ZM203.5 16.5921V40.5921H200.734V16.5921H203.5ZM202.828 31.4983L201.703 31.4514C201.693 30.2952 201.823 29.2275 202.094 28.2483C202.375 27.2587 202.771 26.3994 203.281 25.6702C203.802 24.941 204.422 24.3785 205.141 23.9827C205.859 23.5764 206.656 23.3733 207.531 23.3733C208.219 23.3733 208.844 23.4879 209.406 23.7171C209.969 23.9358 210.448 24.29 210.844 24.7796C211.24 25.2692 211.542 25.9046 211.75 26.6858C211.969 27.4567 212.078 28.3994 212.078 29.5139V40.5921H209.312V29.4827C209.312 28.5973 209.214 27.8889 209.016 27.3577C208.828 26.816 208.536 26.4254 208.141 26.1858C207.755 25.9358 207.266 25.8108 206.672 25.8108C206.13 25.8108 205.625 25.9619 205.156 26.2639C204.688 26.566 204.276 26.9827 203.922 27.5139C203.578 28.0452 203.307 28.6546 203.109 29.3421C202.922 30.0192 202.828 30.7379 202.828 31.4983ZM218.969 26.3421V40.5921H216.203V23.6858H218.875L218.969 26.3421ZM223.172 23.5921L223.188 26.2796C222.958 26.2275 222.75 26.1962 222.562 26.1858C222.385 26.165 222.177 26.1546 221.938 26.1546C221.417 26.1546 220.958 26.2587 220.562 26.4671C220.177 26.6754 219.844 26.9671 219.562 27.3421C219.281 27.7171 219.057 28.165 218.891 28.6858C218.724 29.1962 218.609 29.7587 218.547 30.3733L217.828 30.8421C217.828 29.8212 217.906 28.8629 218.062 27.9671C218.229 27.0712 218.484 26.2796 218.828 25.5921C219.172 24.8942 219.609 24.3525 220.141 23.9671C220.682 23.5712 221.328 23.3733 222.078 23.3733C222.245 23.3733 222.448 23.3994 222.688 23.4514C222.938 23.4931 223.099 23.54 223.172 23.5921Z" fill="#FF7500"/>
<defs>
<clipPath id="clip0_19_119">
<rect width="38" height="59.1841" fill="white"/>
</clipPath>
</defs>
</svg>

<svg width="224" height="60" fill="none" xmlns="http://www.w3.org/2000/svg"><g clip-path="url(#a)"><path d="M19 0 0 13.646V48.65l10.534 10.534-.232-36.764L19 15.308l8.698 7.112-.232 36.764L38 48.65V13.646L19 0Z" fill="#252420"/><path d="M25.994 29.592 19 33.791l-6.994-4.199v12.259L19 46.055l6.994-4.204V29.592Z" fill="#FF7401"/></g><path d="M59.828 19.858 53.61 40.592h-2.937L58 17.842h1.844l-.016 2.016Zm5.031 20.734-6.218-20.734-.032-2.016h1.86l7.328 22.75h-2.938Zm0-8.422v2.469H53.891V32.17h10.968Zm8.47-15.578v24h-2.766v-24h2.765Zm8.577 7.094-6.015 7.89-3.72 4.282-.187-3.078 2.563-3.532 4.031-5.562h3.328Zm-2.531 16.906-4.75-8.062 1.422-2.579 6.547 10.641h-3.219Zm13.89-2.89V28.53c0-.667-.103-1.204-.312-1.61a1.838 1.838 0 0 0-.906-.89c-.396-.188-.896-.282-1.5-.282-.584 0-1.089.12-1.516.36a2.58 2.58 0 0 0-.969.953 2.669 2.669 0 0 0-.328 1.312H84.97c0-.604.13-1.203.39-1.797a5.22 5.22 0 0 1 1.157-1.609c.5-.49 1.099-.875 1.796-1.156.709-.292 1.5-.438 2.376-.438 1.041 0 1.963.172 2.765.516.802.333 1.432.88 1.89 1.64.46.761.688 1.771.688 3.032v8.344c0 .562.042 1.161.125 1.796.094.636.224 1.183.39 1.641v.25h-2.859c-.135-.333-.24-.776-.312-1.328a12.214 12.214 0 0 1-.11-1.563Zm.438-7.36.031 2.031h-1.921c-.657 0-1.256.073-1.797.22-.532.145-.99.358-1.375.64-.386.27-.683.61-.891 1.015-.198.407-.297.87-.297 1.39 0 .678.094 1.22.281 1.626.188.396.47.682.844.86.375.176.85.265 1.422.265.698 0 1.313-.162 1.844-.484.531-.323.943-.714 1.234-1.172.302-.459.443-.886.422-1.282l.61 1.297c-.042.407-.178.85-.407 1.328a5.5 5.5 0 0 1-.922 1.36 5.104 5.104 0 0 1-1.406 1.062c-.531.271-1.13.407-1.797.407-.979 0-1.838-.188-2.578-.563a4.016 4.016 0 0 1-1.703-1.656c-.406-.73-.61-1.63-.61-2.703 0-.813.141-1.563.422-2.25a4.853 4.853 0 0 1 1.25-1.782c.553-.51 1.245-.906 2.079-1.187.843-.281 1.817-.422 2.921-.422h2.344Zm15.485 6.969V16.592h2.75v24h-2.516l-.234-3.281Zm-9.454-4.36v-1.578c0-1.396.136-2.593.407-3.593.27-1.01.656-1.839 1.156-2.485.5-.656 1.099-1.14 1.797-1.453.698-.312 1.468-.469 2.312-.469.875 0 1.625.177 2.25.532.636.354 1.167.87 1.594 1.546.427.667.76 1.48 1 2.438.25.948.417 2.02.5 3.219v2.11c-.094 1.187-.266 2.254-.516 3.202-.239.948-.573 1.755-1 2.422-.427.667-.958 1.177-1.593 1.531-.636.355-1.391.532-2.266.532-.833 0-1.594-.162-2.281-.485-.688-.333-1.287-.828-1.797-1.484-.5-.667-.886-1.495-1.156-2.485-.271-1-.407-2.166-.407-3.5Zm2.766-1.578v1.578c0 .938.068 1.756.203 2.454.136.687.349 1.26.641 1.718a2.75 2.75 0 0 0 1.109 1c.458.22 1.005.328 1.641.328.771 0 1.401-.187 1.89-.562.49-.375.881-.87 1.172-1.484.302-.625.542-1.297.719-2.016V29.95a8.356 8.356 0 0 0-.453-1.53 5.303 5.303 0 0 0-.75-1.329 3.213 3.213 0 0 0-1.078-.937c-.417-.23-.906-.344-1.469-.344-.635 0-1.187.114-1.656.344a2.8 2.8 0 0 0-1.125 1.03c-.282.46-.495 1.037-.641 1.735-.135.698-.203 1.516-.203 2.453Zm19.75 9.532c-1.01 0-1.922-.151-2.734-.454a5.33 5.33 0 0 1-2.078-1.375c-.573-.625-1.011-1.411-1.313-2.359-.302-.948-.453-2.068-.453-3.36v-1.906c0-1.49.172-2.75.516-3.78.354-1.032.828-1.86 1.421-2.485.594-.636 1.266-1.094 2.016-1.375a6.33 6.33 0 0 1 2.313-.438c1.062 0 1.968.172 2.718.516.75.344 1.36.854 1.828 1.531.469.677.813 1.51 1.032 2.5.229.99.343 2.13.343 3.422v1.61h-10.562v-2.36h7.797v-.39c-.042-.876-.162-1.646-.36-2.313-.187-.667-.5-1.188-.937-1.563-.438-.385-1.057-.578-1.859-.578-.511 0-.985.089-1.422.266-.427.167-.797.463-1.11.89-.302.417-.541.995-.718 1.735-.167.74-.25 1.677-.25 2.812v1.907c0 .906.083 1.687.25 2.343.177.646.432 1.183.765 1.61.344.416.761.729 1.25.937.5.198 1.068.297 1.703.297.927 0 1.693-.177 2.297-.531a5.906 5.906 0 0 0 1.578-1.39l1.453 1.734a6.265 6.265 0 0 1-1.187 1.234c-.479.386-1.073.703-1.781.953-.698.24-1.537.36-2.516.36Zm11.719-13.86v13.547h-2.75V23.686h2.593l.157 3.36Zm-.563 4.453-1.281-.047c-.01-1.156.104-2.224.344-3.203.239-.99.599-1.849 1.078-2.578a5.135 5.135 0 0 1 1.828-1.687c.74-.407 1.599-.61 2.578-.61a4.64 4.64 0 0 1 1.797.344 3.716 3.716 0 0 1 1.469 1.047c.416.48.739 1.094.969 1.844.239.75.359 1.656.359 2.718v11.266h-2.766V29.467c0-.885-.12-1.594-.359-2.125-.229-.531-.557-.917-.984-1.156-.428-.25-.938-.375-1.532-.375-.677 0-1.245.15-1.703.453a3.253 3.253 0 0 0-1.078 1.25 6.633 6.633 0 0 0-.563 1.828 14.207 14.207 0 0 0-.156 2.156Zm9.11-1.593-1.844.593a9.415 9.415 0 0 1 .344-2.672 7.389 7.389 0 0 1 1.062-2.28 5.276 5.276 0 0 1 1.781-1.579c.709-.396 1.532-.594 2.469-.594.771 0 1.453.12 2.047.36.594.24 1.094.61 1.5 1.11.417.489.729 1.119.937 1.89.209.77.313 1.687.313 2.75v11.11h-2.766V29.45c0-.948-.119-1.682-.359-2.203-.229-.53-.557-.9-.984-1.11-.427-.218-.938-.327-1.532-.327-.479 0-.906.11-1.281.328a2.84 2.84 0 0 0-.922.906c-.25.375-.442.807-.578 1.297a6.297 6.297 0 0 0-.187 1.563Z" fill="#252420"/><path d="M158.062 27.295v13.297h-2.765V23.686h2.609l.156 3.61Zm-.671 4.203-1.125-.047c-.011-1.156.119-2.224.39-3.203.282-.99.677-1.849 1.188-2.578.521-.729 1.14-1.292 1.859-1.687a4.775 4.775 0 0 1 2.391-.61 4.93 4.93 0 0 1 1.875.344 3.422 3.422 0 0 1 1.437 1.063c.396.49.698 1.125.906 1.906.219.77.329 1.713.329 2.828v11.078h-2.766v-11.11c0-.885-.099-1.593-.297-2.124-.187-.542-.479-.933-.875-1.172-.385-.25-.875-.375-1.469-.375-.541 0-1.046.15-1.515.453-.469.302-.88.719-1.235 1.25a6.838 6.838 0 0 0-.812 1.828 8.026 8.026 0 0 0-.281 2.156Zm21.687 6.203V28.53c0-.667-.104-1.204-.312-1.61a1.837 1.837 0 0 0-.907-.89c-.395-.188-.895-.282-1.5-.282-.583 0-1.088.12-1.515.36-.417.24-.74.557-.969.953a2.665 2.665 0 0 0-.328 1.312h-2.766c0-.604.13-1.203.391-1.797a5.222 5.222 0 0 1 1.156-1.609c.5-.49 1.099-.875 1.797-1.156.708-.292 1.5-.438 2.375-.438 1.042 0 1.964.172 2.766.516.802.333 1.432.88 1.89 1.64.459.761.688 1.771.688 3.032v8.344c0 .562.041 1.161.125 1.796.093.636.224 1.183.39 1.641v.25H179.5c-.135-.333-.24-.776-.312-1.328a12.203 12.203 0 0 1-.11-1.563Zm.438-7.359.031 2.031h-1.922c-.656 0-1.255.073-1.797.22-.531.145-.989.358-1.375.64-.385.27-.682.61-.891 1.015-.197.407-.296.87-.296 1.39 0 .678.093 1.22.281 1.626.187.396.469.682.844.86.375.176.849.265 1.421.265.698 0 1.313-.162 1.844-.484.532-.323.943-.714 1.235-1.172.302-.459.442-.886.421-1.282l.61 1.297c-.042.407-.177.85-.406 1.328a5.507 5.507 0 0 1-.922 1.36 5.117 5.117 0 0 1-1.406 1.062c-.532.271-1.131.407-1.797.407-.98 0-1.839-.188-2.579-.563a4.022 4.022 0 0 1-1.703-1.656c-.406-.73-.609-1.63-.609-2.703 0-.813.141-1.563.422-2.25a4.852 4.852 0 0 1 1.25-1.782c.552-.51 1.245-.906 2.078-1.187.844-.281 1.818-.422 2.922-.422h2.344Zm14.828 5.922c0-.427-.104-.802-.313-1.125-.208-.323-.552-.636-1.031-.938-.469-.302-1.104-.625-1.906-.968a32.335 32.335 0 0 1-2.11-.953 8.004 8.004 0 0 1-1.562-1.047 3.933 3.933 0 0 1-.984-1.297c-.219-.5-.329-1.089-.329-1.766s.125-1.302.375-1.875a4.696 4.696 0 0 1 1.094-1.531 4.902 4.902 0 0 1 1.688-1.016c.656-.25 1.39-.375 2.203-.375 1.156 0 2.14.224 2.953.672a4.595 4.595 0 0 1 1.859 1.844c.438.77.657 1.64.657 2.61h-2.75c0-.47-.105-.912-.313-1.329a2.54 2.54 0 0 0-.922-1.015c-.406-.271-.901-.407-1.484-.407-.615 0-1.115.11-1.5.328a2.027 2.027 0 0 0-.844.86c-.167.344-.25.724-.25 1.14 0 .313.042.584.125.813.094.219.25.427.469.625.219.187.515.385.89.594.386.198.875.427 1.469.687 1.146.448 2.11.901 2.891 1.36.781.458 1.375.994 1.781 1.609.406.614.609 1.375.609 2.281 0 .74-.135 1.412-.406 2.016a4.29 4.29 0 0 1-1.125 1.531 5.096 5.096 0 0 1-1.766.984c-.677.22-1.437.329-2.281.329-1.271 0-2.349-.25-3.234-.75-.875-.51-1.542-1.172-2-1.985a5.438 5.438 0 0 1-.672-2.64h2.766c.031.791.208 1.406.531 1.843.333.438.734.74 1.203.907.469.166.937.25 1.406.25.615 0 1.13-.089 1.547-.266.417-.188.729-.453.938-.797.218-.344.328-.745.328-1.203Zm9.156-19.672v24h-2.766v-24h2.766Zm-.672 14.906-1.125-.047c-.01-1.156.12-2.224.391-3.203.281-.99.677-1.849 1.187-2.578.521-.729 1.141-1.292 1.86-1.687a4.769 4.769 0 0 1 2.39-.61c.688 0 1.313.115 1.875.344a3.42 3.42 0 0 1 1.438 1.063c.396.49.698 1.125.906 1.906.219.77.328 1.713.328 2.828v11.078h-2.766v-11.11c0-.885-.098-1.593-.296-2.124-.188-.542-.48-.933-.875-1.172-.386-.25-.875-.375-1.469-.375-.542 0-1.047.15-1.516.453-.468.302-.88.719-1.234 1.25a6.808 6.808 0 0 0-.813 1.828 8.067 8.067 0 0 0-.281 2.156Zm16.141-5.156v14.25h-2.766V23.686h2.672l.094 2.656Zm4.203-2.75.016 2.688a3.809 3.809 0 0 0-.626-.094 5.426 5.426 0 0 0-.624-.031c-.521 0-.98.104-1.376.312a3.08 3.08 0 0 0-1 .875 4.5 4.5 0 0 0-.671 1.344 8.006 8.006 0 0 0-.344 1.687l-.719.47c0-1.022.078-1.98.234-2.876.167-.896.422-1.687.766-2.375.344-.698.781-1.24 1.313-1.625.541-.396 1.187-.594 1.937-.594.167 0 .37.026.61.078.25.042.411.089.484.141Z" fill="#FF7500"/><defs><clipPath id="a"><path fill="#fff" d="M0 0h38v59.184H0z"/></clipPath></defs></svg>
